!!!COM: Scriabin, Alexander
!!!OTL@@FR: Feuillet d'album
!!!OTL@@EN: Album Leaf
!!!OPS: 58
!!!ODT: 1911
!!!AGN: Miniature
**kern	**kern	**dynam
*staff2	*staff1	*staff1/2
*Ipiano	*Ipiano	*
*clefF4	*clefG2	*
*k[]	*k[]	*
*X:	*X:	*
*M3/4	*M3/4	*
=1	=1	=1
.	16qeLL	pp
.	16qg#X	.
.	16qdd#XJJ	.
8r	2ff#X	p
8Cn	.	.
8A#XL	.	.
8e	.	.
*clefG2	*	*
8dd#X	[4ff#	.
8g#XJ	.	.
*clefF4	*	*
=2	=2	=2
16qCLL	.	.
16qA#X	.	.
16qeJJ	.	.
4g#X	8ff#L]	.
.	8eeJ	.
4r	8dd#X	.
.	4g#X	.
[4A#X	.	.
.	[8g#	.
=3	=3	=3
*	*^	*
.	8qB#X\	.	.
8A#L]	8e	8g#L]	.
8E	8r	8f##XJ	.
*	*v	*v	*
.	8qe	.
8FF#X	12g#XL	.
.	12.b#X	.
8E	.	.
.	24dd#XJk	.
.	16qg#LL	.
.	16qb#	.
.	16qdd#JJ	.
8A#X	[4ee	.
8g#XJ	.	.
=4	=4	=4
!	!	!LO:HP:b=2
8d#XL	4.ee]	>
8c##X	.	]
!	!	!LO:HP:b=2
8d#	.	>
8c##J	[8ee	]
12d#L	8eeL]	.
12c##	.	.
.	8ffnJ	.
12c#XJ	.	.
!!LO:LB:g=original
=5	=5	=5
.	16qg-XLL	.
.	16qb-X	.
.	16qffJJ	.
8cnL	2aa-X	.
8E--	.	.
8c	.	.
*clefG2	*	*
8g-X	.	.
8ff	[4aa-	.
8b-XJ	.	.
=6	=6	=6
16qE--LL	.	.
16qc	.	.
16qg-XJJ	.	.
4b-X	8aa-L]	.
.	8gg-XJ	.
4r	8ff	.
.	4b-X	.
*clefF4	*	*
[4c	.	.
.	8b-	.
=7	=7	=7
*	*^	*
.	8qd\	.	.
8cL]	8g-X	8b-XL	.
8G-X	8r	8anJ	.
*	*v	*v	*
.	8qg-	.
8AA-X	12b-L	.
.	12.dd	.
8G-	.	.
.	24ffJk	.
.	16qb-LL	.
.	16qdd	.
.	16qffJJ	.
8c	[4gg-X	.
8b-XJ	.	.
=8	=8	=8
!	!	!LO:HP:b=2
8fL	4.gg-]	>
8e	.	]
!	!	!LO:HP:b=2
8f	.	>
8eJ	[8gg-X	]
12fL	4gg-]	.
12e	.	.
12e-XJ	.	.
!!LO:LB:g=original
=9	=9	=9
*	*^	*
8dL	4r	[2.ff#X	<
8En	.	.	.
8d	4b#X	.	.
8g#XJ	.	.	.
[4B-X	4cc#X	.	.
=10	=10	=10	=10
.	16qf#XLL	.	.
.	16qb-X	.	.
.	16qcc#XJJ	.	.
8B-L]	4.dd	4ff#]	.
8Cn	.	.	.
8B-X	.	4.aa	.
8eJ	4dd	.	.
8a	.	.	.
8r	8cc#	8ff#X	.
=11	=11	=11	=11
.	[8.qdd\	16qddLL	.
.	.	16qff#X	.
.	.	16qaaJJ	.
8r	2.dd_	[2.bb-X	.
8FFn	.	.	.
8CL	.	.	.
8B-X	.	.	.
8e	.	.	.
*clefG2	*	*	*
8ddJ	.	.	.
=12	=12	=12	=12
8aL	2dd]	2bb-]	.
8g#X	.	.	.
8a	.	.	.
8g#J	.	.	.
*clefF4	*	*	*
4C 4B-X 4e	12ddL	12aaL	.
.	12e	12raa	.
.	24r	24raa	.
.	24cc#XJk	24ff#XJk	.
=13	=13	=13	=13
.	[8.qdd\	16qddLL	.
.	.	16qff#X	.
.	.	16qaaJJ	.
8r	2.dd_	[2.bb-X	.
8FFn	.	.	.
8CL	.	.	.
8B-X	.	.	.
8e	.	.	.
*clefG2	*	*	*
8ddJ	.	.	.
!!LO:LB:g=original
=14	=14	=14	=14
8aL	4.dd]	4.bb-]	.
8g#X	.	.	.
8a	.	.	.
8g#J	8r	8dd	.
*clefF4	*	*	*
*	*	*^	*
[4Cn [4A#X	4e\	6an	12cc#XL	.
.	.	.	12dd	>
.	.	12g#X	12dd#XJ	.
*	*	*v	*v	*
*	*v	*v	*
=15	=15	=15
.	16qeLL	pp
.	16qg#X	.
.	16qdd#XJJ	.
*	*^	*
2.C] 2.A#] 2.e	2.g# 2.dd#	[2.ff#X	.
*	*v	*v	*
=16	=16	=16
8r	2ff#]	.
8C	.	.
8A#XL	.	.
8e	.	.
*clefG2	*	*
8dd#X	[4ff#X	.
8g#XJ	.	.
*clefF4	*	*
=17	=17	=17
16qFF#XLL	.	.
16qE	.	.
16qA#X	.	.
16qeJJ	.	.
2g#X	8ff#L]	.
.	8eeJ	.
.	8dd#X	.
.	4g#X	.
[4A#X	.	.
.	[8g#	.
=18	=18	=18
*	*^	*
.	8qB#X\	.	.
!	!	!	!LO:DY:b=2
12A#L]	8e	6g#]	pp
12E	.	.	.
.	8r	.	.
12FF#XJ	.	12f##X	.
*	*v	*v	*
.	8qe	.
12BBBnL	12g#XL	.
12FF#	12.b#X	.
12EJ	.	.
.	24dd#XJk	.
.	16qg#LL	.
.	16qb#	.
.	16qdd#JJ	.
12A#XL	[4ee	.
12g#X	.	.
[12d#XJ	.	.
!!LO:LB:g=original
=19	=19	=19
6d#]	2e 2g#X 2ee]	.
12c##X	.	.
6d#X	.	.
12c##	.	.
*	*^	*
12d#L	4e	[4g#	.
12c##	.	.	.
12c#XJ	.	.	.
=20	=20	=20	=20
.	8qB#X\	.	.
12A#X\L	8e	6g#]	.
12E	.	.	.
.	8r	.	.
12FF#XJ	.	12f##X	.
.	.	8qe	.
*	*v	*v	*
12BBBnL	12g#XL	.
12FF#	12.b#X	.
12EJ	.	.
.	24dd#XJk	.
.	16qg#LL	.
.	16qb#	.
.	16qdd#JJ	.
12A#L	[4ee [4gg#X	.
12g#X	.	.
[12d#XJ	.	.
=21	=21	=21
6d#]	2e 2g#X 2ee] 2gg#]	.
12c##X	.	.
6d#X	.	.
12c##	.	.
16qFF#XLL	.	.
16qE	.	.
16qA#XJJ	.	.
4d#	12g#L	.
.	12.b#X	.
.	24dd#XJk	.
=22	=22	=22
16qBBBnLL	16qg#XLL	ppp
16qFF#X	16qb#X	.
16qE	16qdd#X	.
16qA#XJJ	16qgg#XJJ	.
6g#X	2ee 2bb#X	.
12f##X	.	.
6g#	.	.
12f##	.	.
[4g#	4r	.
=23	=23	=23
8g#]	2.r	.
8r	.	.
4r	.	.
4r	.	.
==	==	==
*-	*-	*-
!!!system-decoration: {(*)}
!!!filter: flipper -a
!!!RDF**dynam: > = dim.
!!!ENC: Bryan Jacob Bell
!!!END: November 2021 to April 2022
!!!PED: Günter Philipp
!!!PTL: Ausgewählte Klavierwerke (Edition Peters)
!!!URL-pdf: https://github.com/bel28kent/Mysterium/blob/main/reference_editions/op58.pdf
